X: 209
T: Hamrapolskan
O: Hamra, Orsa Finnmark
R: Hambopolska
Z: Håkan Lidén, 2008-09-27
M: 9/16
L: 1/8
K: D
A,A,/ C/A,/C/ E3/ | AA/ c/A/c/ e3/ | fe/ d/c B3/ | ed/ c/e/c/ A3/ | A,A,/ C/A,/C/ E3/ | 
AA/ c/A/c/ e3/ | fe/ d/c BA/ | G/B A3/- A3/ :: aa/ f/a/f/ dd/ | ce/ a/e c3/ | 
Bc/ dE/ GB/ | AB/ c/d e3/ | aa/ f/a/f/ dd/ | ce/ a/e c3/ | Bc/ dE/ GB/ | A3/ A3/- A3/ :|

